X: 35741
T: Salaberry
R: reel
M: 4/4
K: Amajor
|ab|c'aba faaf|egae =c^cA=G|FAAF EcEc|^DFAc Beab|
((3c'ba) ba faaf|egae =c^cA=G|FAdf e=c^cA|(3EFG BG A2:|
(3FED|CA2C2< A2B|cBAc BAGE|DFAc dBcA|(3Bcd cB AF~ED|
CA2C2< A2B|cBAc BAGB|ABce faaf|e=c^cG A2:|

